X:7818
T:Jacky Robinson's
M:4/4
L:1/4
R:Reel
K:G
F/E/|DGDG/B/|cAA2|F/G/A F/G/A|G/A/B/e/d2|eedd|c/B/A/B/ AG|DGF/G/A/c/|BGG
